X:974
T:Kirkconnel Lea
C:Joe Buchanan's Scottish Tome - Page 565.1
I:565 1
Z:Carl Allison
R:Waltz
L:1/4
M:3/4
K:A
E | "A7"A2 "E7"B | "A7"c2 A | "A"A F2 | "A"E2 c | "A"e2 "D"f | "A"e2 c | "A"e c2 | "E7"B2 E |
"A"A2 "E7"B | "A"c2 B | "D"A F2 | "A"E2 c | "A"e2 "D"f | c B2 | A3- | "A"A2 c |
"Bm"d2 "F#"c | "Bm"d2 f | "A"e2 c | "A"e2 c | "Bm"d2 "F#"c | "Bm"d2 f | "A"e2 "B7"c | "E7"B2 E | 
"A"A2 "B7"B | "A7"c2 B | "D"A F2 | "A"E2 c | "A"e2 "E"f | c2 B | "A7"A3- | A2 |]

